X: 072143
T: Glencar
C: Joe Liddy
Z: BB
S: "The Leitrim Fiddler" (Dublin 1981)
L: 1/8
M: 4/4
R: reel
Q: 1/4 = 180
K: Ador
Bd | eA A2 BGAG | EGDE GABG | A2 BA GABd | eaaf gedB |
eA A2 BGAG | EGDE GABG | A3B GABd | eBdB A2 :|
Bd | ea (3bag aged | Bg (3agf gedB | eaaf gfge | dcBG A2 Bd |
eage aged | BGEF GABG | A2 Bd eaga | gedB A2 :|
